X:111
T: MAIGLOECKCHEN LAEUTET IN DEM TAL
N: F0230
O: Europa, Mitteleuropa, Deutschland
R: Natur - Lied, Pflanzen; Tanz
M: 2/4
L: 1/16
K: E
B,2 | E3B,A,2F,2 | E,2G,2F,2
F,2 | G,2B,2A,2G,2 | F,4z2
B,2 | E3B,A,2F,2 | E,2G,2F,2
F,2 | B,3C^A,2F,2 | D4
D4 | E3G,^A,2C2 | B,4z2
C2 | F,3F,F,2G,2 | A,3B,A,2
C2 | F,3F,A,2G,2 | A,4z2
B,2 | B,3G,G,2E2 | E3CC2
F2 | D3B,C2D2 | E4
E4 | F3FD2B,2 | E4z2

